X: 40876
T: Tribute To Finbarr And Joe
R: reel
M: 4/4
K: Emajor
B|FB,DF E2GB|e2Be dBAB|e2Be gefe|dBBA FGAF|
B2AF GEE2|egce dBAB|e2Be gefe|1 dBAF E3B||2 dBAF E3b||
gebg ebge|Bbgb afdf|gebg egfe|dBB2 afdf|
gebg afge|fBdf eBGE|Acfd eBGB|AFDF E3:|

